X:80
T:Doctor Gilbert's
R:reel
Z:id:hn-reel-80
M:C|
K:Edor
eBBA ~B2ed|B2A=c BAGF|EDB,D G2FG|EDB,E DB,A,B,|
DE~EE EDB,D|GEED EFGA|(3Bcd ed Bdgb|afdf efgf:|
|:eB~B2 gB~B2|defg afdf|~g3b ~f3b|egfd edBd|
afdf edBc|dBAF AFDF|EG=cA Bdgb|afdf efgf:|
